X:21
T:Crooked Stovepipe
S:Bernie Waugh
R:Reel
M:2/4
L:1/16
K:G
|:\
G2B2 BcdB|G2B2 BcdB|G2B2 e3B|d2c2 cdcA|
F2A2 ABcA|F2A2 A2 (3ABc|d2^d2 e2f2|1gfed B2A2:|2g4g2a2||
|:\
b3b b2a2|g2g4g2|f2e2 f2g2|a4a2b2|
c'3c' c'2a2|f2f4e2|d2^d2 e2f2|1g2^g2a2^a2:|2g4g4|]

